X:1763
T:Bagatelle 1
C:Antonio Diabelli
Z:Transcribed by Frank Nordberg - http://www.musicaviva.com
F:http://abc.musicaviva.com/tunes/diabelli-antonio/diab-bgt01/diab-bgt01-pno1.abc
V:1 Program 1 0 %Piano
V:2 Program 1 0 bass %Piano
M:3/4
L:1/4
Q:1/4=160
K:G
V:1 
DGB|d2B|AEF|G2D| 
V:2 
[G,B,][G,B,][G,B,]|[G,B,][G,B,][G,B,]|[G,C][G,C][G,C]|[G,B,][G,B,][G,B,]| 
% 
V:1 
DGB|d2B|AEF|G2z| 
V:2 
[G,B,][G,B,][G,B,]|[G,B,][G,B,][G,B,]|[G,C][G,C][G,C]|[G,2B,2]z| 
% 
V:1 
AFD|B2G|cAd|B2G| 
V:2 
[D,A,C][D,A,C][D,A,C]|[D,G,B,][D,G,B,][D,G,B,]|[D,F,A,][D,F,A,][D,F,A,]|[D,G,B,][D,G,B,][D,G,B,]| 
% 
V:1 
AFD|B2G|FEFG2z|] 
V:2 
[D,A,C][D,A,C][D,A,C]|[D,G,B,][D,G,B,][D,G,B,][D,A,C][D,A,C][D,A,C]|[G,2B,2]z|]
W:
W:
W:  From Musica Viva - http://www.musicaviva.com
W:  the Internet center for free sheet music downloads.
